assets/icon/download.svg

<svg height="200" viewBox="0 0 1024 1024" width="200" xmlns="http://www.w3.org/2000/svg"><path d="m828.586667 56.888889h-633.173334c-70.087111 0-118.727111 48.696889-118.727111 118.784v633.116444c0 70.087111 48.64 118.727111 118.727111 118.727111h633.173334c70.087111 0 118.727111-48.64 118.727111-118.727111v-633.173333c0-70.030222-48.64-118.727111-118.727111-118.727111zm0 554.097778c0 15.928889-23.608889 39.537778-39.537778 39.537777h-79.189333c-32.426667 0-39.594667 52.736-39.594667 39.537778v79.189334c0 15.928889-23.552 39.537778-39.480889 39.537777h-237.568c-15.928889 0-39.480889-23.608889-39.480889-39.537777v-79.189334c0 13.198222-.284444-39.537778-39.594667-39.537778h-79.189333c-15.928889 0-39.537778-23.608889-39.537778-39.537777v-395.832889c0-15.928889 23.608889-39.480889 39.537778-39.480889h554.097778c15.928889 0 39.537778 23.552 39.537778 39.480889z" fill="#509dff"/><path d="m670.264889 452.664889h-79.189333v-158.264889a39.537778 39.537778 0 0 0 -39.537778-39.594667h-79.189334a39.537778 39.537778 0 0 0 -39.537777 39.594667v158.264889h-79.189334c-21.902222 0-27.022222 12.515556-11.548444 27.989333l169.927111 169.870222 169.870222-169.870222c15.416889-15.473778 10.296889-27.989333-11.605333-27.989333z" fill="#ffcb48"/></svg>

<?xml version="1.0" standalone="no"?><!DOCTYPE svg PUBLIC "-//W3C//DTD SVG 1.1//EN" "http://www.w3.org/Graphics/SVG/1.1/DTD/svg11.dtd"><svg t="1624009406249" class="icon" viewBox="0 0 1024 1024" version="1.1" xmlns="http://www.w3.org/2000/svg" p-id="12778" xmlns:xlink="http://www.w3.org/1999/xlink" width="200" height="200"><defs><style type="text/css"></style></defs><path d="M828.586667 56.888889H195.413333c-70.087111 0-118.727111 48.696889-118.727111 118.784v633.116444c0 70.087111 48.64 118.727111 118.727111 118.727111h633.173334c70.087111 0 118.727111-48.64 118.727111-118.727111V175.616c0-70.030222-48.64-118.727111-118.727111-118.727111z m0 554.097778c0 15.928889-23.608889 39.537778-39.537778 39.537777h-79.189333c-32.426667 0-39.594667 52.736-39.594667 39.537778v79.189334c0 15.928889-23.552 39.537778-39.480889 39.537777H393.216c-15.928889 0-39.480889-23.608889-39.480889-39.537777V690.062222c0 13.198222-0.284444-39.537778-39.594667-39.537778H234.951111c-15.928889 0-39.537778-23.608889-39.537778-39.537777V215.153778c0-15.928889 23.608889-39.480889 39.537778-39.480889h554.097778c15.928889 0 39.537778 23.552 39.537778 39.480889v395.832889z" fill="#509DFF" p-id="12779"></path><path d="M670.264889 452.664889H591.075556V294.4a39.537778 39.537778 0 0 0-39.537778-39.594667H472.348444a39.537778 39.537778 0 0 0-39.537777 39.594667v158.264889H353.621333c-21.902222 0-27.022222 12.515556-11.548444 27.989333L512 650.524444l169.870222-169.870222c15.416889-15.473778 10.296889-27.989333-11.605333-27.989333z" fill="#FFCB48" p-id="12780"></path></svg>
